X: 20833
Q: "Vivace."
M: 3/4
L: 1/8
K: C
("_>"EG) .c2 .e2 | (ce) .d2 .c2 | ("_>"Bd .f2) .a2 | ("_>"^fg .e2) .c'2 |\
("_>"EG) .c2 .e2 | ("_>"Ae) .d2 .c2 | (Ba .g2) (B>d) | "_>"c4 :|
|: Ge |\
"^sf"FedF d2 | "^sf"EdcE c2 "^p"| (Bd/)z/ (df/)z/ (fa/)z/ | (ag/)z/ (ge/)z/ (ec'/)z/ "^sf"|\


